!!!!SEGMENT: pl-cz--i-155--008_anonim--landler-1.krn
!!!cenid: 18xx:2517
!!!COM: Anonim
!!!COM-rismid: pe30004985
!!!CDT:
!!!CNT:
!!!OTL: Ländler 1
!!!PDT:
!!!AGN: Secular
!!!SMS-siglum: PL-CZ
!!!SMS-shelfmark: I-155
!!!SMS-shelfwork: 008 W
!!!SMS-variant:
!!!SMS-altvar:
!!!NIFC-rismid: 1001012517
!!!URL-scan: http://repozytorium.nifc.pl/skany/pl-cz-nut--i-155
!!!ONB-nifc: UWAGA: 10 krótkich Landler numerowanych na pięcioliniach (nr 1-10, odpowiednio 008-017). skan 0026, 0038 Uwaga: 5 partii
**kern	**kern	**kern	**kern	**kern
*part5	*part4	*part3	*part2	*part1
*staff5	*staff4	*staff3	*staff2	*staff1
*Icor	*Icor	*Iclars	*Iclars	*Iclars
*I"Corno Secondo	*I"Corno Primo.	*I"Clarinetto 2do	*I"Clarinetto Secondo	*I"Clarinetto Primo
*I'cor 2 in D#	*I'cor 1 in D#	*I'cl 2 in B♭	*I'cl 1 in B♭	*I'cl 1 in B♭
*clefG2	*clefG2	*clefG2	*clefG2	*clefG2
*ITrd5c9	*ITrd5c9	*ITrd1c2	*ITrd1c2	*ITrd1c2
*k[b-e-a-]	*k[b-e-a-]	*k[b-]	*k[b-]	*k[b-]
*F:	*F:	*F:	*F:	*F:
*M3/4	*M3/4	*M3/4	*M3/4	*M3/4
!	!	!	!LO:TX:a:t=[Clarinetto Primo]	!LO:TX:t=P:problem:all\middle or right:global
4ryy	4ryy	8a/L	8cc\L	4ryy
.	.	8g/J	8b-\J	.
=1	=1	=1	=1	=1
2.ryy	2.ryy	4.f/	4.a\	2.ryy
.	.	8a/	8cc\	.
.	.	4cc\	4ff\	.
=2	=2	=2	=2	=2
2.ryy	2.ryy	4.a\	4.cc\	2.ryy
.	.	8cc\	8ff\	.
.	.	4ff\	4aa\	.
=3	=3	=3	=3	=3
2.ryy	2.ryy	8cc\L	8ee\L	2.ryy
.	.	8ee\	8gg\	.
.	.	8ee\	8gg\	.
.	.	8cc\	8ee\J	.
.	.	8cc\	4cc\	.
.	.	8b-\J	.	.
=4	=4	=4	=4	=4
2.ryy	2.ryy	8a\L	8ff\L	2.ryy
.	.	8ff\	8aa\	.
.	.	8ff\	8aa\	.
.	.	8cc\	8ff\	.
.	.	8a\	8cc\	.
!	!	!	!LO:SIC:v:s=8b-	!
.	.	8g\J	8a\J	.
=5	=5	=5	=5	=5
2.ryy	2.ryy	4.f/	4.a\	2.ryy
.	.	8a/	8cc\	.
.	.	4cc\	4ff\	.
=6	=6	=6	=6	=6
2.ryy	2.ryy	4.a\	4.cc\	2.ryy
.	.	8cc\	8ff\	.
.	.	4ff\	4aa\	.
=7	=7	=7	=7	=7
2.ryy	2.ryy	8ee\L	8gg\L	2.ryy
.	.	8gg\	8bb-\	.
.	.	8gg\	8bb-\	.
.	.	8ee\	8gg\	.
.	.	8cc\	8ee\	.
.	.	8b-\J	8gg\J	.
=8	=8	=8	=8	=8
*	*	*2\right	*2\right	*
2ryy	2ryy	2a\	2ff\	2ryy
!!LO:LB:g=original
=:||:	=:||:	=:||:	=:||:	=:||:
4.ryy	4.ryy	4r	8ff\L	4.ryy
.	.	.	8ee\	.
.	.	8r	8ff\J	.
!!LO:LB:g=original
=9	=9	=9	=9	=9
*	*	*tremolo	*	*
2.ryy	2.ryy	8A/L	4aa\	2.ryy
.	.	8c/	.	.
.	.	8A/	16ee\KL	.
.	.	.	8.ff\J	.
.	.	8c/	.	.
.	.	8A/	4cc\	.
.	.	8c/J	.	.
=10	=10	=10	=10	=10
2.ryy	2.ryy	8A/L	4aa\	2.ryy
.	.	8c/	.	.
.	.	8A/	16ee\KL	.
.	.	.	8.ff\J	.
.	.	8c/	.	.
.	.	8A/	4cc\	.
.	.	8c/J	.	.
*	*	*Xtremolo	*	*
=11	=11	=11	=11	=11
2.ryy	2.ryy	8gg\L	8bb-\L	2.ryy
.	.	8ee\	8gg\	.
.	.	8ee\	8ee\	.
.	.	8cc\	8cc\	.
.	.	8cc\	8ee\	.
.	.	8b-\J	8gg\J	.
=12	=12	=12	=12	=12
2.ryy	2.ryy	8a\L	(8ff\L	2.ryy
.	.	8cc\J	8aa\)	.
.	.	4a\	8ff\	.
.	.	.	(8ff\|	.
.	.	4r	8ee\	.
.	.	.	8ff\J)	.
=13	=13	=13	=13	=13
*	*	*tremolo	*	*
2.ryy	2.ryy	8A/L	4aa\	2.ryy
.	.	8c/	.	.
.	.	8A/	16ee\KL	.
.	.	.	8.ff\J	.
.	.	8c/	.	.
.	.	8A/	4cc\	.
.	.	8c/J	.	.
=14	=14	=14	=14	=14
2.ryy	2.ryy	8A/L	4aa\	2.ryy
.	.	8c/	.	.
.	.	8A/	16ee\KL	.
.	.	.	8.ff\J	.
.	.	8c/	.	.
.	.	8A/	4cc\	.
.	.	8c/J	.	.
*	*	*Xtremolo	*	*
=15	=15	=15	=15	=15
2.ryy	2.ryy	8gg\L	8bb-\L	2.ryy
.	.	8ee\	8gg\	.
.	.	8ee\	8gg\	.
.	.	8cc\	8ee\	.
.	.	8cc\	8ee\	.
.	.	8b-\J	8gg\J	.
=16	=16	=16	=16	=16
2ryy	2ryy	2a\	2ff\	2ryy
==	==	==	==	==
*-	*-	*-	*-	*-
!!!system-decoration: [(s1,s2,s3)][(s4,s5)]
!!!ENC: Katarzyna Serwa
!!!END: 2021-06-17
!!!EED: Leszek Kubiak
!!!EST: 2021-06-22
!!!RDF**kern: | = vertical stroke
